X:218
T:Gambles Are Coming. JaW.218
T:Campbells Are Coming,aka. JaW.218
M:6/8
L:1/8
Q:3/8=120
S:James Winder Ms, Lancashire, 1835-41
R:.Jig
O:England
A:Wyresdale,Lancashire
Z:vmp.Chris Partington, Aug 2004
K:G
GBe dBG|B>cB B2A|GBe dBG|A>BA A2B|!
GBe dBG|B2d g2a|bag gfe|” no rest in ms”d>BB Bz2:|!
|:g>ag gab|d>ed def|g>ag gab|e>fe e2f|!
g>ag gfe|dBd g2a|bag gfe|” no rest in ms”d>BB Bz2:|

